libs/ui/packages/crypto-icons/src/svg/GZR.svg

<svg width="24" height="24" viewBox="0 0 24 24" fill="none">
<path d="M17.6817 7.10724C17.1162 6.89874 15.8667 7.21074 15.8067 7.29999C16.0452 7.34499 16.1194 7.37499 16.4764 7.43424C16.8589 7.50399 17.2264 7.63974 17.5624 7.83624C17.9194 8.04399 18.0679 7.76124 18.0679 7.76124C18.1279 7.62774 17.9644 7.21074 17.6817 7.10724ZM7.52142 4.63749C7.43002 4.49329 7.33062 4.35432 7.22367 4.22124C6.94092 3.92349 6.39117 3.77499 6.09267 3.92349C5.92917 3.99849 5.85492 4.10199 5.98917 4.28049C6.15192 4.44174 6.35892 4.55049 6.58392 4.59324C6.71742 4.62324 7.31292 4.75674 7.46142 4.78599C7.61142 4.78599 7.52142 4.63749 7.52142 4.63749ZM8.11617 6.13974C8.10429 6.11318 8.08288 6.09204 8.05617 6.08049C7.68915 6.12672 7.31725 6.04827 7.00017 5.85774C6.92842 5.80709 6.84274 5.7799 6.75492 5.7799C6.66709 5.7799 6.58142 5.80709 6.50967 5.85774C6.31617 6.02124 6.59892 6.21474 6.61392 6.21474C6.73242 6.28899 6.86667 6.25974 6.98592 6.28899C7.27716 6.37337 7.57618 6.42815 7.87842 6.45249C8.13117 6.45249 8.19042 6.36249 8.11617 6.13974ZM17.9644 5.58999C17.9944 5.49999 17.9644 5.20299 17.4282 5.27724C16.9819 5.35224 16.6699 5.47074 16.6849 5.52999C16.6999 5.58999 17.1904 5.67924 17.2947 5.69349C17.7109 5.76849 17.9494 5.64849 17.9644 5.58999ZM12.5494 3.10524C12.4973 3.057 12.4297 3.02898 12.3587 3.02622C12.2877 3.02347 12.2181 3.04618 12.1624 3.09024C11.7162 3.37299 12.0432 4.33974 12.0874 4.33974C12.1324 4.33974 12.1774 3.99774 12.6237 3.49224C12.6448 3.46213 12.6597 3.42807 12.6674 3.39208C12.6751 3.35609 12.6754 3.31893 12.6684 3.2828C12.6614 3.24668 12.6472 3.21234 12.6266 3.18183C12.6061 3.15132 12.5795 3.12527 12.5487 3.10524H12.5494ZM11.1312 5.97849C11.1312 5.94099 11.0937 5.94099 11.1312 5.97849V5.97849Z" fill="#56C9E9"/>
<path d="M10.7043 5.49997C10.4216 5.35147 10.6593 4.62247 10.5558 4.35472C10.5461 4.31344 10.5262 4.27522 10.4981 4.24346C10.47 4.2117 10.4344 4.18739 10.3947 4.17269C10.3549 4.15799 10.3121 4.15336 10.27 4.15921C10.228 4.16506 10.1881 4.18121 10.1538 4.20622C10.1152 4.22193 10.0805 4.24592 10.0522 4.27649C10.0239 4.30706 10.0026 4.34348 9.98987 4.38317C9.97714 4.42285 9.97327 4.46485 9.97854 4.5062C9.9838 4.54755 9.99807 4.58724 10.0203 4.62247C10.0803 4.74172 10.4366 5.42572 10.1538 5.54497C10.0496 5.58997 9.82684 5.49997 9.67834 5.41072C9.14284 5.17297 9.05359 4.35472 8.88934 4.25047C8.81339 4.19444 8.72085 4.16547 8.6265 4.16819C8.53216 4.17091 8.44144 4.20516 8.36884 4.26547C8.29561 4.30673 8.24005 4.37342 8.21269 4.45289C8.18532 4.53237 8.18804 4.61912 8.22034 4.69672C8.29459 4.83097 8.57734 4.90522 8.63659 5.36647L8.81509 5.49997C8.90509 5.57497 8.99359 5.64922 9.09784 5.72347C9.36559 5.99122 9.30634 6.03622 9.85684 5.94697C10.0353 5.88697 10.0053 5.64922 10.1838 5.58997C10.2948 5.5753 10.4077 5.59057 10.5108 5.63422C10.6751 5.72122 10.8131 5.84947 10.9128 6.00622C11.1506 6.28897 11.2548 6.64597 11.4633 6.95872C11.5353 7.08922 11.6253 7.20922 11.7311 7.31497L11.9538 7.49347C12.2666 7.70197 12.5493 7.68697 12.7721 7.44847C12.8327 7.40512 12.8838 7.34981 12.9222 7.28597C12.9607 7.22212 12.9856 7.15108 12.9956 7.07722C13.1142 6.71868 13.2648 6.37153 13.4456 6.03997C13.4471 6.03861 13.4489 6.03758 13.4508 6.03694C13.4528 6.03629 13.4548 6.03605 13.4568 6.03622C13.4575 6.02849 13.4609 6.02125 13.4664 6.01576C13.4719 6.01027 13.4791 6.0069 13.4868 6.00622C13.5281 5.9772 13.5774 5.96164 13.6278 5.96164C13.6783 5.96164 13.7275 5.9772 13.7688 6.00622C13.8138 6.06622 13.7238 6.61597 13.7688 6.67522C13.7988 6.79522 14.0216 6.72022 14.2151 6.70522C14.2334 6.68236 14.2485 6.65713 14.2601 6.63022C14.5871 6.52672 14.8998 6.36322 15.2268 6.27397H15.4053C15.5876 6.24397 15.7728 6.24397 15.9558 6.27397C16.1343 6.27397 16.1936 6.37822 16.1786 6.54172C16.4763 6.52672 16.7741 6.52672 17.0711 6.49672C17.2053 6.48172 17.4138 6.48172 17.3988 6.22897C17.3688 6.08047 17.1311 5.66422 16.0451 5.91697C15.9408 5.94697 15.3461 6.12547 15.1376 6.02122C15.4548 5.81572 15.7826 5.62747 16.1193 5.45572C16.2678 5.33647 16.3871 5.17297 16.2978 4.99447C16.2086 4.81597 16.0301 4.83097 15.8666 4.89022C15.5584 4.98598 15.2778 5.15447 15.0483 5.38147C14.8976 5.53447 14.7333 5.67397 14.5571 5.79772C14.1258 6.00622 14.1258 6.00622 14.0216 5.97622C13.8881 5.91622 13.7388 5.81272 13.8431 5.66422C13.9038 5.56747 13.9488 5.46172 13.9773 5.35147C14.0223 5.15797 13.9623 5.09872 13.8281 5.09872C13.5603 5.11372 13.4711 5.49997 13.4268 5.55997C13.3983 5.61847 13.3631 5.67247 13.3226 5.72347C13.2881 5.75757 13.2447 5.78127 13.1973 5.79188C13.15 5.80249 13.1006 5.79958 13.0548 5.78347C12.9656 5.76847 12.8913 5.72347 12.9656 5.60422C13.0998 5.39647 13.5161 5.06872 13.6353 4.63747C13.6353 4.63747 13.8431 4.07197 13.2633 4.05772C12.9506 4.04272 12.6978 4.26547 12.6086 4.60747C12.5193 4.96447 12.7128 5.45572 12.6086 5.69347C12.5711 5.79397 12.5208 5.88847 12.4601 5.97622C12.3599 6.06603 12.2301 6.1157 12.0956 6.1157C11.9611 6.1157 11.8313 6.06603 11.7311 5.97622C11.6738 5.90947 11.6321 5.83086 11.6089 5.74604C11.5857 5.66123 11.5816 5.57232 11.5968 5.48572C11.6478 5.28963 11.6876 5.09081 11.7161 4.89022C11.7311 4.74172 11.4633 4.47397 11.2398 4.65247C11.1356 4.72747 11.1798 4.84597 11.2248 4.95022C11.2998 5.17297 11.4333 5.81272 10.7043 5.49997ZM11.1213 5.96122C11.1063 5.94622 11.1213 5.94622 11.1213 5.96122V5.96122Z" fill="#56C9E9"/>
<path d="M11.6119 6.63252H12.5944C12.6829 6.61302 12.7706 6.68202 12.8321 6.81852C12.8366 6.89352 12.8186 6.96702 12.7871 7.00452C12.6243 6.92806 12.4466 6.88842 12.2666 6.88842C12.0867 6.88842 11.909 6.92806 11.7461 7.00452H11.7011L11.6119 6.63252Z" fill="#56C9E9"/>
<path d="M15.2119 6.22897C14.8328 6.33601 14.4605 6.46523 14.0966 6.61597C14.0642 6.62599 14.0295 6.62559 13.9973 6.61482C13.9652 6.60406 13.9372 6.58348 13.9174 6.55597C13.9026 6.52332 13.895 6.48791 13.895 6.4521C13.895 6.41628 13.9026 6.38087 13.9174 6.34822C13.9322 6.29984 13.9322 6.2481 13.9174 6.19972C13.887 6.11839 13.8358 6.04647 13.7689 5.99122C13.7398 5.96716 13.7058 5.94984 13.6693 5.9405C13.6328 5.93117 13.5946 5.93004 13.5576 5.93721C13.5206 5.94439 13.4856 5.95968 13.4553 5.98199C13.4249 6.00429 13.3998 6.03306 13.3819 6.06622C13.1822 6.37838 13.0317 6.71936 12.9356 7.07722C12.8999 7.22059 12.8224 7.35009 12.7129 7.44922C12.4894 7.64272 12.2816 7.65772 11.9839 7.49422C11.901 7.434 11.8216 7.36915 11.7461 7.29997C11.6438 7.18616 11.5541 7.0617 11.4784 6.92872C11.3584 6.70522 11.2399 6.46747 11.1214 6.25897C10.9571 5.99122 10.7936 5.73847 10.4966 5.60422C10.4011 5.56959 10.2974 5.56436 10.1989 5.58922C10.1554 5.59763 10.1143 5.61532 10.0783 5.64108C10.0423 5.66683 10.0123 5.70006 9.99036 5.73847C9.94536 5.81272 9.35061 5.82772 9.14286 5.70847C9.03786 5.64847 8.74086 5.35147 8.63661 5.38147C8.54736 5.38147 8.50311 5.32147 8.44311 5.27722C8.30981 5.18563 8.15664 5.12705 7.99624 5.10632C7.83584 5.08558 7.67281 5.10329 7.52061 5.15797C7.4569 5.17298 7.399 5.20635 7.35408 5.25394C7.30915 5.30153 7.27917 5.36126 7.26786 5.42572C7.26865 5.49445 7.2905 5.56129 7.33046 5.61721C7.37043 5.67314 7.42659 5.71546 7.49136 5.73847C7.63911 5.79397 7.78311 5.85847 7.92261 5.93197C7.99761 5.96197 8.11611 5.97697 8.10111 6.11047C8.09987 6.14584 8.10495 6.18114 8.11611 6.21472C8.13111 6.40747 7.99686 6.42247 7.86336 6.42247C7.67284 6.40729 7.48378 6.37746 7.29786 6.33322C7.09217 6.26387 6.8742 6.23857 6.65811 6.25897C6.59811 6.33397 6.52461 6.28897 6.44961 6.30397C6.18186 6.34897 5.97411 6.54172 5.98911 6.76447C6.00411 7.01797 6.21186 7.07722 6.42036 7.12147C6.92586 7.24147 7.43211 7.19647 7.93761 7.21147C8.54736 7.21147 8.89011 7.50847 8.97861 8.11897C9.03861 8.56447 10.3774 20.287 10.3924 20.5397C10.3936 20.5914 10.4117 20.6412 10.4439 20.6816C10.4762 20.7219 10.5208 20.7506 10.5709 20.7632C11.0764 20.917 11.6044 20.9882 12.1324 20.9717C12.7256 20.9867 13.3174 20.9117 13.8874 20.7482C13.9774 20.7182 14.0516 20.6882 14.0516 20.5697C14.0666 20.2577 14.9141 9.05572 14.9141 8.87722C14.9052 8.35622 15.0731 7.84758 15.3904 7.43422C15.6431 7.13647 15.9259 6.86872 16.1786 6.57172C16.2536 6.15472 15.7174 6.15472 15.2119 6.22897Z" fill="#56C9E9"/>
</svg>

<svg width="24" height="24" viewBox="0 0 24 24" fill="none"><path fill="#56c9e9" d="M17.682 7.107c-.566-.208-1.815.104-1.875.193.238.045.312.075.67.134.382.07.75.206 1.085.402.357.208.506-.075.506-.075.06-.133-.104-.55-.386-.654m-10.16-2.47a5 5 0 0 0-.298-.416c-.283-.298-.833-.446-1.131-.298-.164.075-.238.179-.104.357.163.162.37.27.595.313.133.03.729.164.877.193.15 0 .06-.149.06-.149m.594 1.503a.12.12 0 0 0-.06-.06A1.65 1.65 0 0 1 7 5.858a.425.425 0 0 0-.49 0c-.194.163.089.357.104.357.118.074.253.045.372.074q.438.127.892.163c.253 0 .312-.09.238-.312m9.848-.55c.03-.09 0-.387-.536-.313-.446.075-.758.194-.743.253.015.06.505.15.61.163.416.075.654-.045.67-.103M12.55 3.105a.3.3 0 0 0-.387-.015c-.446.283-.119 1.25-.075 1.25.045 0 .09-.342.537-.848a.275.275 0 0 0-.075-.387m-1.418 2.873c0-.037-.037-.037 0 0"/><path fill="#56c9e9" d="M10.704 5.5c-.282-.149-.045-.878-.148-1.145a.257.257 0 0 0-.402-.149.285.285 0 0 0-.134.416c.06.12.417.804.134.923-.104.045-.327-.045-.476-.134-.535-.238-.624-1.056-.789-1.16a.42.42 0 0 0-.52.014.343.343 0 0 0-.149.432c.075.134.357.208.417.67l.178.133c.09.075.179.15.283.223.268.268.208.313.759.224.178-.06.148-.298.327-.357a.63.63 0 0 1 .327.044c.164.087.302.215.402.372.238.283.342.64.55.953q.108.196.268.356l.223.178c.313.209.595.194.818-.045a.55.55 0 0 0 .224-.37q.178-.54.45-1.038l.01-.004a.033.033 0 0 1 .03-.03.245.245 0 0 1 .283 0c.045.06-.045.61 0 .67.03.12.253.044.446.03a.3.3 0 0 0 .045-.076c.327-.103.64-.267.967-.356h.178q.276-.045.55 0c.18 0 .239.104.224.268.297-.015.595-.015.892-.045.134-.015.343-.015.328-.268-.03-.149-.268-.565-1.354-.312-.104.03-.699.208-.907.104q.476-.308.981-.565c.149-.12.268-.283.179-.462-.09-.178-.268-.163-.431-.104a2 2 0 0 0-.819.491q-.226.23-.49.417c-.432.208-.432.208-.536.178-.134-.06-.283-.163-.179-.312q.091-.146.134-.313c.045-.193-.015-.252-.149-.252-.268.015-.357.401-.401.461a1 1 0 0 1-.104.163.26.26 0 0 1-.268.06c-.09-.015-.164-.06-.09-.179.135-.208.551-.535.67-.967 0 0 .208-.565-.372-.58-.312-.014-.565.208-.654.55-.09.357.104.849 0 1.086a1.3 1.3 0 0 1-.149.283.546.546 0 0 1-.729 0 .6.6 0 0 1-.134-.49q.075-.294.12-.596c.014-.148-.254-.416-.477-.238-.104.075-.06.194-.015.298.075.223.208.863-.52.55m.417.461c-.015-.015 0-.015 0 0"/><path fill="#56c9e9" d="M11.612 6.633h.982c.089-.02.177.049.238.186.005.075-.013.148-.045.186a1.22 1.22 0 0 0-1.04 0H11.7z"/><path fill="#56c9e9" d="M15.212 6.229q-.57.16-1.115.387a.16.16 0 0 1-.18-.06.25.25 0 0 1 0-.208.25.25 0 0 0 0-.148.5.5 0 0 0-.148-.209.256.256 0 0 0-.387.075 3.6 3.6 0 0 0-.446 1.011.74.74 0 0 1-.223.372c-.224.194-.431.209-.73.045a3 3 0 0 1-.237-.194 2 2 0 0 1-.268-.371c-.12-.224-.238-.462-.357-.67-.164-.268-.327-.52-.624-.655a.5.5 0 0 0-.298-.015.3.3 0 0 0-.209.15c-.045.074-.64.089-.847-.03-.105-.06-.402-.358-.506-.328-.09 0-.134-.06-.194-.104a1.02 1.02 0 0 0-.922-.119.33.33 0 0 0-.253.268.34.34 0 0 0 .223.312q.222.083.432.194c.075.03.193.045.178.178a.3.3 0 0 0 .015.105c.015.192-.12.207-.253.207a4 4 0 0 1-.565-.089 1.55 1.55 0 0 0-.64-.074c-.06.075-.133.03-.208.045-.268.045-.476.238-.46.46.014.254.222.313.43.357.506.12 1.012.075 1.518.09.61 0 .952.297 1.04.908.06.445 1.4 12.168 1.414 12.42a.236.236 0 0 0 .179.224 4.9 4.9 0 0 0 1.561.209 5.8 5.8 0 0 0 1.755-.224c.09-.03.165-.06.165-.178.015-.312.862-11.514.862-11.693a2.3 2.3 0 0 1 .476-1.443c.253-.298.536-.565.789-.862.075-.417-.462-.417-.967-.343"/></svg>
